X: 34635
T: Road To Ballymac, The
R: reel
M: 4/4
K: Gmajor
|:DG (3GGG BAGA|Bd (3ddd e2 de|gd (3ddd egde|gedB ABGE|
DG (3GGG BAGA|Bd (3ddd e2 de|gd (3ddd egdB|1 AGAB G2 GE:|2 AGAB G2 GA||
Bd (3ddd edBd|eg (3ggg a2 ga|bgag egde|gedB ABGA|
Bd (3ddd edBd|eg (3ggg a2 ga|bgag egdB|1 AGAB G2 GA:|2 AGAB G4||

